assets/img/shape/teamDetailsShape1_2.svg

<svg width="246" height="73" viewBox="0 0 246 73" fill="none" xmlns="http://www.w3.org/2000/svg">
<path d="M77.5565 208.244C83.2124 188.751 75.6408 177.716 76.325 164.781C77.0092 151.846 82.5738 132.534 86.6788 118.875C90.7839 105.217 93.3381 97.5283 93.0645 89.6135C92.5171 75.2313 85.8122 40.4516 87.0893 32.3107C88.3208 24.1698 93.9767 25.7076 95.4363 27.0644C98.5835 30.0494 99.4045 36.155 100.134 39.5471C102.278 49.09 105.334 66.4572 107.751 77.3569C109.85 86.7642 110.169 89.8396 114.548 90.0658C118.926 90.2919 119.656 82.8747 119.656 82.8747C119.656 82.8747 135.985 17.3858 138.174 11.1897C140.364 4.99354 143.146 0.154226 149.395 2.09899C155.644 4.04376 153.819 16.2099 153.819 16.2099C153.819 16.2099 142.234 73.377 141.96 81.0203C141.686 88.6637 147.114 85.8144 148.209 84.0958C149.303 82.3772 153.545 73.1961 153.545 73.1961C153.545 73.1961 165.176 43.9793 171.151 31.5419C177.081 19.1044 181.414 9.87806 186.112 3.86285C190.81 -2.15236 196.74 1.91809 198.017 5.12922C199.294 8.38557 193.684 23.2653 193.684 23.2653C193.684 23.2653 176.488 71.4322 173.843 79.166C171.243 86.8999 169.783 89.2969 169.783 92.6889C169.783 96.081 175.074 97.5735 177.856 93.684C180.593 89.7944 185.793 83.0556 185.793 83.0556C185.793 83.0556 212.932 47.1452 219.91 40.3611C226.889 33.5771 230.036 36.2907 234.141 40.4064C238.246 44.5673 226.798 59.6279 226.798 59.6279C226.798 59.6279 210.788 82.0606 201.757 94.4076C192.726 106.755 187.024 117.745 184.333 125.388C181.642 132.986 181.87 139.499 187.344 142.167C191.175 144.022 196.42 142.394 198.883 141.399C204.129 139.273 209.237 135.926 218.086 132.037C226.934 128.192 239.204 131.358 243.172 133.981C247.14 136.604 245.772 142.982 240.937 144.7C224.882 150.308 222.51 152.931 217.356 157.183C211.837 161.706 202.943 167.63 195.736 175.907C188.529 184.183 178.084 190.696 165.131 197.661C152.177 204.626 146.612 220.637 146.612 220.637L141.595 236.783C141.595 236.783 127.547 283.005 115.14 324.614C110.853 338.996 70.9885 488.381 63.417 520.04C57.4418 521.849 51.4211 523.613 45.3092 525.377C37.464 516.331 29.9381 507.467 22.6858 498.738C14.795 489.24 7.26913 479.924 0.0625 470.743C17.2124 416.832 73.9988 220.591 77.5565 208.244Z" fill="#043F2E"/>
</svg>

<svg version="1.2" xmlns="http://www.w3.org/2000/svg" viewBox="0 0 246 73" width="246" height="73"><style>.a{fill:#c32583}</style><path class="a" d="m77.6 208.2c5.6-19.4-2-30.5-1.3-43.4 0.7-13 6.3-32.3 10.4-45.9 4.1-13.7 6.6-21.4 6.4-29.3-0.6-14.4-7.3-49.1-6-57.3 1.2-8.1 6.9-6.6 8.3-5.2 3.2 2.9 4 9.1 4.7 12.4 2.2 9.6 5.2 27 7.7 37.9 2 9.4 2.4 12.4 6.7 12.7 4.4 0.2 5.2-7.2 5.2-7.2 0 0 16.3-65.5 18.5-71.7 2.2-6.2 4.9-11 11.2-9.1 6.2 1.9 4.4 14.1 4.4 14.1 0 0-11.6 57.2-11.8 64.8-0.3 7.7 5.1 4.8 6.2 3.1 1.1-1.7 5.3-10.9 5.3-10.9 0 0 11.7-29.2 17.7-41.7 5.9-12.4 10.2-21.6 14.9-27.6 4.7-6.1 10.6-2 11.9 1.2 1.3 3.3-4.3 18.2-4.3 18.2 0 0-17.2 48.1-19.9 55.9-2.6 7.7-4 10.1-4 13.5 0 3.4 5.3 4.9 8.1 1 2.7-3.9 7.9-10.6 7.9-10.6 0 0 27.1-36 34.1-42.7 7-6.8 10.1-4.1 14.2 0 4.1 4.2-7.3 19.2-7.3 19.2 0 0-16 22.5-25 34.8-9.1 12.4-14.8 23.3-17.5 31-2.7 7.6-2.4 14.1 3 16.8 3.9 1.8 9.1 0.2 11.6-0.8 5.2-2.1 10.3-5.5 19.2-9.4 8.8-3.8 21.1-0.6 25.1 2 3.9 2.6 2.6 9-2.3 10.7-16 5.6-18.4 8.2-23.5 12.5-5.6 4.5-14.5 10.4-21.7 18.7-7.2 8.3-17.6 14.8-30.6 21.8-12.9 6.9-18.5 22.9-18.5 22.9l-5 16.2c0 0-14.1 46.2-26.5 87.8-4.2 14.4-44.1 163.8-51.7 195.4-6 1.8-12 3.6-18.1 5.4-7.8-9.1-15.4-17.9-22.6-26.7-7.9-9.5-15.4-18.8-22.6-28 17.1-53.9 73.9-250.1 77.5-262.5z"/></svg>
